contributed-vectors/a_color_story.svg

<svg width="192" height="192" version="1.1" viewBox="0 0 192 192" xmlns="http://www.w3.org/2000/svg">
 <path d="m96 96-4 44 4 44c17.022-8e-3 33.677-4.9536 47.945-14.236z" style="fill:#71a372"/>
 <path d="m96 96-28 36-19.916 37.717c14.255 9.2938 30.899 14.255 47.916 14.283z" style="fill:#73ada4"/>
 <path d="m96 96-44 16-36.014 20.369c6.9269 15.25 18.062 28.207 32.098 37.348z" style="fill:#96dfd3"/>
 <path d="m8.8301 84.631c-0.52212 3.7678-0.79939 7.5655-0.83008 11.369 0.037444 12.554 2.7605 24.955 7.9863 36.369l80.014-36.369-44-8z" style="fill:#bd9aff"/>
 <path d="m30.291 37.594c-11.702 13.176-19.178 29.563-21.461 47.037l87.17 11.369-28-36z" style="fill:#8c72bd"/>
 <path d="m70.402 11.891c-15.479 4.7168-29.358 13.61-40.111 25.703l65.709 58.406-4-44z" style="fill:#ba6561"/>
 <path d="m96 8c-8.6777 0.027678-17.304 1.3387-25.598 3.8906l25.598 84.109 20-44 5.6172-40.17c-8.3034-2.5333-16.936-3.8239-25.617-3.8301z" style="fill:#ff837d"/>
 <path d="m121.62 11.83-25.617 84.17 40-24 26.977-32.93c-10.894-12.852-25.249-22.307-41.359-27.24z" style="fill:#f8c18c"/>
 <path d="m121.62 11.83-25.617 84.17 40-24 26.977-32.93c-10.894-12.852-25.249-22.307-41.359-27.24z" style="fill:#ff837d;opacity:.5"/>
 <path d="m162.98 39.07-66.977 56.93 48 4 39.154-15.367c-2.1956-16.814-9.2025-32.636-20.178-45.562z" style="fill:#f8c18c"/>
 <path d="m96 96 47.945 73.764c14.037-9.1522 25.17-22.122 32.088-37.385l-28.033-20.379z" style="fill:#98dc9a"/>
 <path d="m183.15 84.633-87.154 11.367 80.033 36.379a88 88 0 0 0 7.9668-36.379 88 88 0 0 0-0.8457-11.367z" style="fill:#f9de81"/>
 <path d="m96 96 30.512 46.941a56 56 0 0 0 22.83-29.965l-1.3418-0.97656-52-16z" style="fill:#f9de81"/>
 <path d="m96 96-4 44 1.0781 11.854a56 56 0 0 0 2.9219 0.14648 56 56 0 0 0 30.512-9.0586l-30.512-46.941z" style="fill:#98dc9a"/>
 <path d="m96 96-28 36-4.8867 9.2559a56 56 0 0 0 32.887 10.744v-56z" style="fill:#71a372"/>
 <path d="m96 96-44 16-8.0723 4.5644a56 56 0 0 0 21.58 26.346l30.492-46.91z" style="fill:#73ada4"/>
 <path d="m40.777 87.125a56 56 0 0 0-0.77734 8.875 56 56 0 0 0 5.082 23.145l50.918-23.145-44-8-11.223-0.875z" style="fill:#96dfd3"/>
 <path d="m58.596 54.412a56 56 0 0 0-18.068 34.354l55.473 7.2344-28-36-9.4043-5.5879z" style="fill:#bd9aff"/>
 <path d="m86.031 40.916a56 56 0 0 0-31.846 17.916l41.814 37.168-4-44-5.9688-11.084z" style="fill:#8c72bd"/>
 <path d="m96 40a56 56 0 0 0-16.289 2.4766l16.289 53.523 20-44 1.0957-7.8398a56 56 0 0 0-21.096-4.1602z" style="fill:#ba6561"/>
 <path d="m112.3 42.439-16.301 53.561 40-24 6.1934-7.5586a56 56 0 0 0-29.893-22.002z" style="fill:#ff837d;stroke-width:1.5447"/>
 <path d="m138.62 59.771-42.621 36.229 48 4 7.957-3.123a56 56 0 0 0 0.04297-0.87695 56 56 0 0 0-13.379-36.229z" style="fill:#f8c18c"/>
 <path d="m138.62 59.771-42.621 36.229 48 4 7.957-3.123a56 56 0 0 0 0.04297-0.87695 56 56 0 0 0-13.379-36.229z" style="fill:#ff837d;opacity:.5"/>
 <path d="m151.46 88.766-55.463 7.2344 50.932 23.15a56 56 0 0 0 5.0684-23.15 56 56 0 0 0-0.53711-7.2344z" style="fill:#f8c18c"/>
</svg>

<svg xmlns="http://www.w3.org/2000/svg" width="192" height="192"><path d="m96 96-4 44 4 44a87.997 87.997 0 0 0 47.945-14.236z" style="fill:#71a372"/><path d="m96 96-28 36-19.916 37.717A88 88 0 0 0 96 184z" style="fill:#73ada4"/><path d="m96 96-44 16-36.014 20.369a88 88 0 0 0 32.098 37.348z" style="fill:#96dfd3"/><path d="M8.83 84.631A88 88 0 0 0 8 96a87.997 87.997 0 0 0 7.986 36.369L96 96l-44-8z" style="fill:#bd9aff"/><path d="M30.291 37.594A88.003 88.003 0 0 0 8.83 84.631L96 96 68 60z" style="fill:#8c72bd"/><path d="M70.402 11.891a88 88 0 0 0-40.111 25.703L96 96l-4-44z" style="fill:#ba6561"/><path d="M96 8a88.002 88.002 0 0 0-25.598 3.89L96 96l20-44 5.617-40.17A88.002 88.002 0 0 0 96 8z" style="fill:#ff837d"/><path d="M121.62 11.83 96.003 96l40-24 26.977-32.93a87.993 87.993 0 0 0-41.359-27.24z" style="fill:#f8c18c"/><path d="M121.62 11.83 96.003 96l40-24 26.977-32.93a87.993 87.993 0 0 0-41.359-27.24z" style="fill:#ff837d;opacity:.5"/><path d="M162.98 39.07 96.003 96l48 4 39.154-15.367a87.997 87.997 0 0 0-20.178-45.562z" style="fill:#f8c18c"/><path d="m96 96 47.945 73.764a87.998 87.998 0 0 0 32.088-37.385L148 112z" style="fill:#98dc9a"/><path d="M183.15 84.633 95.996 96l80.033 36.379A88 88 0 0 0 183.996 96a88 88 0 0 0-.846-11.367z" style="fill:#f9de81"/><path d="m96 96 30.512 46.941a56 56 0 0 0 22.83-29.965l-1.342-.977-52-16z" style="fill:#f9de81"/><path d="m96 96-4 44 1.078 11.854A56 56 0 0 0 96 152a56 56 0 0 0 30.512-9.058L96 96z" style="fill:#98dc9a"/><path d="m96 96-28 36-4.887 9.256A56 56 0 0 0 96 152V96z" style="fill:#71a372"/><path d="m96 96-44 16-8.072 4.564a56 56 0 0 0 21.58 26.346L96 96z" style="fill:#73ada4"/><path d="M40.777 87.125A56 56 0 0 0 40 96a56 56 0 0 0 5.082 23.145L96 96l-44-8-11.223-.875z" style="fill:#96dfd3"/><path d="M58.596 54.412a56 56 0 0 0-18.068 34.354L96.001 96l-28-36-9.404-5.588z" style="fill:#bd9aff"/><path d="M86.031 40.916a56 56 0 0 0-31.846 17.916L95.999 96l-4-44-5.969-11.084z" style="fill:#8c72bd"/><path d="M96 40a56 56 0 0 0-16.289 2.477L96 96l20-44 1.096-7.84A56 56 0 0 0 96 40z" style="fill:#ba6561"/><path d="M112.3 42.439 95.999 96l40-24 6.193-7.559A56 56 0 0 0 112.3 42.44z" style="fill:#ff837d;stroke-width:1.5447"/><path d="M138.62 59.771 95.999 96l48 4 7.957-3.123a56 56 0 0 0 .043-.877 56 56 0 0 0-13.379-36.229z" style="fill:#f8c18c"/><path d="M138.62 59.771 95.999 96l48 4 7.957-3.123a56 56 0 0 0 .043-.877 56 56 0 0 0-13.379-36.229z" style="fill:#ff837d;opacity:.5"/><path d="M151.46 88.766 95.997 96l50.932 23.15A56 56 0 0 0 151.997 96a56 56 0 0 0-.537-7.234z" style="fill:#f8c18c"/></svg>
